X: 10933
T: COTILLION No. 12. tune 6
C:
%R: hornpipe, reel
B: Elias Howe "The Musician's Companion" Part 1 1842 p.93 #3
S: http://imslp.org/wiki/The_Musician's_Companion_(Howe,_Elias)
Z: 2015 John Chambers <jc:trillian.mit.edu>
M: C|
L: 1/8
K: F
% - - - - - - - - - - - - - - - - - - - - - - - - -
F>A |\
c2d>c A2F>A | c2d>c A2f>e | d>cd>e f>ef>d | e>fg>a g2F>A |\
c2d>c A2F>A | c2d>c A2f>e | d>ef>d e>fg>e | f>ga>g f2 H:|
|: g>a |\
g<e e<c d<f f<d | c<A A<F G2 F>G | A>GA>c d>cd>f | e>fg>a g2F>A |\
c2d>c A2F>A | c2d>c A2f>e | d>ef>d e>fg>e | f>ga>g f2 :|
% - - - - - - - - - - Dance description - - - - - - - - - -
%%begintext align
%% All promenade round,
%% form lines,
%% march,
%% all balance,
%% swing partners to place,
%% all promenade.
%%endtext
% - - - - - - - - - - - - - - - - - - - - - - - - -
%%sep 1 1 300
